app/dist/common/images/mge-energy.svg

<svg height="18" width="18" xmlns="http://www.w3.org/2000/svg"><path d="m0 0h18v18h-18z" fill="#006e51"/><path d="m6.283 14h7.717v-3h-6c-.865 0-.985-.447-1-.76-.023-.586 0-1.487 0-2.24 0-.833.57-1 1-1h2.387c.367 0 .613.073.613.5s-.203.5-.613.5h-2.387v2h3.825c1.818 0 2.175-1.3 2.175-2v-1.82c0-1.66-1.458-2.145-2.175-2.18h-5.68c-1.777 0-2.174 1.538-2.143 2.308v5.62c.018 1.674 1.533 2.079 2.28 2.072z" fill="#fff"/></svg>

<!-- by TradingView --><svg width="18" height="18" xmlns="http://www.w3.org/2000/svg"><path fill="#006E51" d="M0 0h18v18H0z"/><path d="M6.283 14H14v-3H8c-.865 0-.985-.447-1-.76C6.977 9.654 7 8.753 7 8c0-.833.57-1 1-1h2.387c.367 0 .613.073.613.5s-.203.5-.613.5H8v2h3.825C13.643 10 14 8.7 14 8V6.18C14 4.52 12.542 4.035 11.825 4h-5.68C4.368 4 3.971 5.538 4.002 6.308v5.62c.018 1.674 1.533 2.079 2.28 2.072z" fill="#fff"/></svg>
